packages/core/src/svgs/tokens/mono/CLORE.svg

<svg width="24" height="24" viewBox="0 0 24 24" fill="none" xmlns="http://www.w3.org/2000/svg">
<path d="M17.3088 3.50833C15.8521 2.57073 14.1666 2.04993 12.4349 2.00244C10.5416 3.76451 10.6042 7.34489 12.4349 8.982C13.1973 5.96398 14.9718 4.32688 17.3088 3.50833ZM19.527 5.20791C16.6776 5.08294 14.4658 7.66356 14.4658 10.1754C15.5299 9.42775 16.7838 8.99595 18.0827 8.92961C19.3816 8.86329 20.6728 9.16516 21.8077 9.80055C21.4266 7.78853 20.7079 6.72629 19.527 5.20791ZM21.9952 12.3749C20.2205 10.4941 16.7465 10.6816 15.0344 12.4374C17.8274 13.1122 19.3395 14.3869 20.6016 17.2174C21.5665 15.7912 22.0544 14.0959 21.9952 12.3749ZM18.8334 19.4169C18.6459 16.3989 16.5839 14.6244 13.8346 14.4495C15.2531 16.9238 15.5404 19.2294 14.272 21.7477C15.9641 21.3662 17.5329 20.5648 18.8334 19.4169ZM11.5539 21.9976C13.3909 20.173 13.5159 17.2174 11.5539 15.0181C10.7979 18.0985 9.14822 19.6731 6.68011 20.5542C8.37969 21.579 9.49186 21.8163 11.5539 21.9976ZM4.59311 18.792C7.54864 18.5172 9.46693 16.5927 9.46693 13.762C7.62988 15.2054 4.53063 15.3929 2.12496 14.3245C2.7998 16.2802 3.33091 17.2988 4.59311 18.792ZM2 11.5627C3.58086 13.256 6.8738 13.5059 8.96079 11.5627C5.98652 10.8691 4.2432 9.12565 3.45589 6.84501C2.5277 8.24514 2.02226 9.88293 2 11.5627ZM5.16173 4.64555C5.60536 7.66356 7.25496 9.29449 10.1605 9.55065C8.69212 7.13244 8.57963 4.833 9.66069 2.25238C7.56739 2.75226 6.46765 3.45209 5.16173 4.64555Z" fill="white"/>
</svg>

<svg xmlns="http://www.w3.org/2000/svg" width="24" height="24" fill="none" viewBox="0 0 24 24">
    <path fill="#fff" d="M17.309 3.508a9.5 9.5 0 0 0-4.874-1.506c-1.893 1.763-1.83 5.343 0 6.98.762-3.018 2.537-4.655 4.874-5.474m2.218 1.7c-2.85-.125-5.061 2.456-5.061 4.967a6.9 6.9 0 0 1 7.342-.374c-.381-2.012-1.1-3.075-2.281-4.593m2.468 7.167c-1.774-1.88-5.248-1.693-6.96.062 2.792.675 4.305 1.95 5.567 4.78a8.14 8.14 0 0 0 1.393-4.842m-3.162 7.042c-.187-3.018-2.25-4.793-4.998-4.968 1.418 2.475 1.705 4.78.437 7.299a10.3 10.3 0 0 0 4.561-2.331m-7.28 2.58c1.838-1.824 1.963-4.78 0-6.979-.755 3.08-2.405 4.655-4.873 5.536 1.7 1.025 2.812 1.262 4.874 1.444m-6.96-3.205c2.956-.275 4.874-2.2 4.874-5.03-1.837 1.443-4.936 1.63-7.342.563.675 1.955 1.206 2.974 2.468 4.467M2 11.562c1.58 1.694 4.874 1.944 6.96 0-2.973-.693-4.717-2.436-5.504-4.717A8.75 8.75 0 0 0 2 11.563m3.162-6.916c.443 3.018 2.093 4.648 4.999 4.905-1.469-2.419-1.581-4.718-.5-7.299-2.094.5-3.193 1.2-4.5 2.394"/>
</svg>
